components/Icon/svg/note.svg

<svg width="32" height="32" viewBox="0 0 32 32" fill="none" xmlns="http://www.w3.org/2000/svg">
<path fill-rule="evenodd" clip-rule="evenodd" d="M2 29.4737C2 30.8665 3.13569 32 4.53125 32H26.4688C27.8643 32 29 30.8665 29 29.4737V2.52632C29 1.13347 27.8643 0 26.4688 0H4.53125C3.13569 0 2 1.13347 2 2.52632V29.4737ZM3.6875 2.52632C3.6875 2.06147 4.0655 1.68421 4.53125 1.68421H26.4688C26.9345 1.68421 27.3125 2.06147 27.3125 2.52632V29.4737C27.3125 29.9385 26.9345 30.3158 26.4688 30.3158H4.53125C4.0655 30.3158 3.6875 29.9385 3.6875 29.4737V2.52632ZM12.9688 6.73684H7.90625C7.4405 6.73684 7.0625 6.35958 7.0625 5.89474C7.0625 5.42989 7.4405 5.05263 7.90625 5.05263H12.9688C13.4345 5.05263 13.8125 5.42989 13.8125 5.89474C13.8125 6.35958 13.4345 6.73684 12.9688 6.73684ZM7.90625 10.1053H12.9688C13.4345 10.1053 13.8125 9.728 13.8125 9.26316C13.8125 8.79832 13.4345 8.42105 12.9688 8.42105H7.90625C7.4405 8.42105 7.0625 8.79832 7.0625 9.26316C7.0625 9.728 7.4405 10.1053 7.90625 10.1053ZM12.9688 13.4737H7.90625C7.4405 13.4737 7.0625 13.0964 7.0625 12.6316C7.0625 12.1667 7.4405 11.7895 7.90625 11.7895H12.9688C13.4345 11.7895 13.8125 12.1667 13.8125 12.6316C13.8125 13.0964 13.4345 13.4737 12.9688 13.4737ZM7.90625 16.8421H12.9688C13.4345 16.8421 13.8125 16.4648 13.8125 16C13.8125 15.5352 13.4345 15.1579 12.9688 15.1579H7.90625C7.4405 15.1579 7.0625 15.5352 7.0625 16C7.0625 16.4648 7.4405 16.8421 7.90625 16.8421ZM23.9375 19.3684C23.9375 19.8333 23.5595 20.2105 23.0938 20.2105H7.90625C7.4405 20.2105 7.0625 19.8333 7.0625 19.3684C7.0625 18.9036 7.4405 18.5263 7.90625 18.5263H23.0938C23.5595 18.5263 23.9375 18.9036 23.9375 19.3684ZM7.0625 22.7368C7.0625 23.2017 7.4405 23.5789 7.90625 23.5789H23.0938C23.5595 23.5789 23.9375 23.2017 23.9375 22.7368C23.9375 22.272 23.5595 21.8947 23.0938 21.8947H7.90625C7.4405 21.8947 7.0625 22.272 7.0625 22.7368ZM23.9375 26.1053C23.9375 26.5701 23.5595 26.9474 23.0938 26.9474H7.90625C7.4405 26.9474 7.0625 26.5701 7.0625 26.1053C7.0625 25.6404 7.4405 25.2632 7.90625 25.2632H23.0938C23.5595 25.2632 23.9375 25.6404 23.9375 26.1053ZM23.0938 16.8421H16.3438C15.878 16.8421 15.5 16.4648 15.5 16V5.89474C15.5 5.42989 15.878 5.05263 16.3438 5.05263H23.0938C23.5595 5.05263 23.9375 5.42989 23.9375 5.89474V16C23.9375 16.4648 23.5595 16.8421 23.0938 16.8421ZM17.1875 15.1579H22.25V6.73684H17.1875V15.1579Z" fill="currentColor"/>
</svg>

<svg xmlns="http://www.w3.org/2000/svg" width="32" height="32" viewBox="0 0 32 32">
  <path fill="currentColor" fill-rule="evenodd" d="M2 29.474A2.532 2.532 0 0 0 4.531 32H26.47A2.532 2.532 0 0 0 29 29.474V2.526A2.532 2.532 0 0 0 26.469 0H4.53A2.532 2.532 0 0 0 2 2.526v26.948ZM3.688 2.526c0-.465.377-.842.843-.842H26.47c.465 0 .843.377.843.842v26.948a.843.843 0 0 1-.843.842H4.53a.843.843 0 0 1-.843-.842V2.526Zm9.28 4.21H7.907a.843.843 0 1 1 0-1.683h5.063a.843.843 0 1 1 0 1.684Zm-5.062 3.37h5.063a.843.843 0 1 0 0-1.685H7.906a.843.843 0 1 0 0 1.684Zm5.063 3.368H7.906a.843.843 0 1 1 0-1.684h5.063a.843.843 0 1 1 0 1.684Zm-5.063 3.368h5.063a.843.843 0 1 0 0-1.684H7.906a.843.843 0 1 0 0 1.684Zm16.032 2.526a.843.843 0 0 1-.844.843H7.906a.843.843 0 1 1 0-1.685h15.188c.465 0 .843.378.843.842ZM7.063 22.737c0 .465.378.842.843.842h15.188a.843.843 0 1 0 0-1.684H7.906a.843.843 0 0 0-.843.842Zm16.875 3.368a.843.843 0 0 1-.844.842H7.906a.843.843 0 1 1 0-1.684h15.188c.465 0 .843.377.843.842Zm-.844-9.263h-6.75A.843.843 0 0 1 15.5 16V5.895c0-.465.378-.842.844-.842h6.75c.465 0 .843.377.843.842V16a.843.843 0 0 1-.843.842Zm-5.907-1.684h5.063V6.737h-5.063v8.42Z" />
</svg>
